dist/assets/img/cases/1.svg

<svg width="152" height="67" viewBox="0 0 152 67" fill="none" xmlns="http://www.w3.org/2000/svg">
<g clip-path="url(#clip0)">
<path d="M7.13955 65.633L7.1314 59.9277H6.03927L3.93652 63.4731L1.80117 59.9277H0.709045V65.633H1.94787V62.2833L3.62682 65.0299H4.21363L5.89257 62.218L5.90072 65.633H7.13955Z" fill="#B53CEE"/>
<path d="M9.86825 64.5734V63.2531H12.5171V62.2261H9.86825V60.9873H12.8675V59.9277H8.55606V65.633H12.9735V64.5734H9.86825Z" fill="#B53CEE"/>
<path d="M16.7218 65.7309C17.7161 65.7309 18.5393 65.3722 19.0772 64.7121L18.2296 63.9297C17.8464 64.3779 17.3655 64.6061 16.7951 64.6061C15.7275 64.6061 14.9694 63.8564 14.9694 62.7805C14.9694 61.7047 15.7275 60.9549 16.7951 60.9549C17.3655 60.9549 17.8464 61.1831 18.2296 61.6232L19.0772 60.8407C18.5393 60.1887 17.7161 59.8301 16.7299 59.8301C14.9531 59.8301 13.6328 61.0608 13.6328 62.7805C13.6328 64.5001 14.9531 65.7309 16.7218 65.7309Z" fill="#B53CEE"/>
<path d="M24.2432 59.9277H19.296V61.0036H21.1135V65.633H22.4175V61.0036H24.2432V59.9277Z" fill="#B53CEE"/>
<path d="M27.715 65.7299C29.5082 65.7299 30.8365 64.4829 30.8365 62.7796C30.8365 61.0761 29.5082 59.8291 27.715 59.8291C25.9138 59.8291 24.5935 61.0843 24.5935 62.7796C24.5935 64.4748 25.9138 65.7299 27.715 65.7299ZM27.715 64.6051C26.6963 64.6051 25.9302 63.8635 25.9302 62.7796C25.9302 61.6955 26.6963 60.9539 27.715 60.9539C28.7338 60.9539 29.5 61.6955 29.5 62.7796C29.5 63.8635 28.7338 64.6051 27.715 64.6051Z" fill="#B53CEE"/>
<path d="M38.1867 59.9277H34.1605V65.633H35.4726L35.4644 61.0036H38.1785L38.1867 59.9277Z" fill="#B53CEE"/>
<path d="M43.369 64.5572V59.9277H38.9842L38.919 61.7127C38.8619 63.3101 38.6745 64.5327 37.9328 64.5572H37.7046L37.6964 66.8148H38.919V65.633H42.9451V66.8148H44.1677V64.5572H43.369ZM40.0845 61.8349L40.1088 61.0036H42.0649V64.5572H39.5139C39.9051 64.0925 40.0355 63.0494 40.0845 61.8349Z" fill="#B53CEE"/>
<path d="M46.3695 64.5734V63.2531H49.0183V62.2261H46.3695V60.9873H49.3687V59.9277H45.0572V65.633H49.4747V64.5734H46.3695Z" fill="#B53CEE"/>
<path d="M56.762 59.9277V62.1773H54.1702V59.9277H52.8499V65.633H54.1702V63.2939H56.762V65.633H58.0823V59.9277H56.762Z" fill="#B53CEE"/>
<path d="M63.8806 65.633H65.2661L62.7151 59.9277H61.411L58.8682 65.633H60.2212L60.7264 64.4104H63.3752L63.8806 65.633ZM61.1503 63.4079L62.0549 61.2237L62.9596 63.4079H61.1503Z" fill="#B53CEE"/>
<path d="M68.9747 59.9277V62.4951C68.608 62.6581 68.1841 62.7478 67.7522 62.7478C66.9616 62.7478 66.5296 62.3484 66.5296 61.566V59.9277H65.2256V61.7127C65.2256 63.0901 66.0651 63.8481 67.5974 63.8481C68.0211 63.8481 68.4775 63.7584 68.9747 63.5791V65.633H70.2788V59.9277H68.9747Z" fill="#B53CEE"/>
<path d="M71.6971 65.633H72.9439L75.6662 61.9246V65.633H76.9702V59.9277H75.7314L73.0092 63.6443V59.9277H71.6971V65.633Z" fill="#B53CEE"/>
<path d="M82.3025 59.9277V62.1773H79.7108V59.9277H78.3904V65.633H79.7108V63.2939H82.3025V65.633H83.6228V59.9277H82.3025Z" fill="#B53CEE"/>
<path d="M89.4211 65.633H90.8066L88.2555 59.9277H86.9515L84.4086 65.633H85.7616L86.2669 64.4104H88.9157L89.4211 65.633ZM86.6907 63.4079L87.5954 61.2237L88.5002 63.4079H86.6907Z" fill="#B53CEE"/>
<path d="M92.8748 64.5734V63.2531H95.5236V62.2261H92.8748V60.9873H95.8741V59.9277H91.5626V65.633H95.9799V64.5734H92.8748Z" fill="#B53CEE"/>
<path d="M101.406 59.9277H96.4591V61.0036H98.2766V65.633H99.5806V61.0036H101.406V59.9277Z" fill="#B53CEE"/>
<path d="M104.855 65.7299C105.849 65.7299 106.673 65.3712 107.211 64.7111L106.363 63.9287C105.98 64.3769 105.499 64.6051 104.928 64.6051C103.861 64.6051 103.103 63.8554 103.103 62.7796C103.103 61.7037 103.861 60.9539 104.928 60.9539C105.499 60.9539 105.98 61.1821 106.363 61.6222L107.211 60.8397C106.673 60.1878 105.849 59.8291 104.863 59.8291C103.086 59.8291 101.766 61.0598 101.766 62.7796C101.766 64.4991 103.086 65.7299 104.855 65.7299Z" fill="#B53CEE"/>
<path d="M110.053 59.9277C108.545 59.9277 107.591 60.7265 107.591 62.0551C107.591 62.9515 108.023 63.6036 108.79 63.9133L107.6 65.633H108.993L110.004 64.117H111.21V65.633H112.514V59.9277H110.053ZM110.086 61.0036H111.21V63.0737H110.053C109.311 63.0737 108.928 62.6988 108.928 62.0386C108.928 61.3542 109.336 61.0036 110.086 61.0036Z" fill="#B53CEE"/>
<path d="M116.252 65.633H118.958C120.425 65.633 121.265 64.9728 121.265 63.8318C121.265 62.7397 120.523 62.1528 119.145 62.1528H117.564V60.9792H120.857V59.9277H116.252V65.633ZM117.564 64.6549V63.1227H118.885C119.577 63.1227 119.928 63.3672 119.928 63.8725C119.928 64.386 119.561 64.6549 118.885 64.6549H117.564Z" fill="#B53CEE"/>
<path d="M122.269 65.633H123.516L126.238 61.9246V65.633H127.543V59.9277H126.304L123.582 63.6443V59.9277H122.269V65.633Z" fill="#B53CEE"/>
<path d="M132.206 62.6582C132.711 62.4382 133.029 61.9981 133.029 61.4439C133.029 60.4088 131.888 59.8057 130.568 59.8057C129.916 59.8057 129.231 59.9524 128.612 60.2703L129.011 61.2972C129.5 61.0201 130.063 60.8897 130.543 60.8897C131.187 60.8897 131.693 61.1342 131.693 61.5988C131.693 61.9737 131.383 62.21 130.845 62.21H129.549V63.2043H130.943C131.538 63.2043 131.929 63.4163 131.929 63.8482C131.929 64.3779 131.318 64.6551 130.568 64.6551C130.014 64.6551 129.378 64.5084 128.856 64.1905L128.449 65.136C129.158 65.5435 129.965 65.7309 130.723 65.7309C132.092 65.7309 133.266 65.1115 133.266 64.0357C133.266 63.3918 132.866 62.8864 132.206 62.6582Z" fill="#B53CEE"/>
<path d="M138.223 59.9277V62.1773H135.632V59.9277H134.311V65.633H135.632V63.2939H138.223V65.633H139.544V59.9277H138.223Z" fill="#B53CEE"/>
<path d="M142.285 64.5734V63.2531H144.934V62.2261H142.285V60.9873H145.284V59.9277H140.973V65.633H145.39V64.5734H142.285Z" fill="#B53CEE"/>
<path d="M149.14 65.7299C150.134 65.7299 150.958 65.3712 151.496 64.7111L150.648 63.9287C150.266 64.3769 149.784 64.6051 149.214 64.6051C148.146 64.6051 147.387 63.8554 147.387 62.7796C147.387 61.7037 148.146 60.9539 149.214 60.9539C149.784 60.9539 150.266 61.1821 150.648 61.6222L151.496 60.8397C150.958 60.1878 150.134 59.8291 149.149 59.8291C147.372 59.8291 146.051 61.0598 146.051 62.7796C146.051 64.4991 147.372 65.7299 149.14 65.7299Z" fill="#B53CEE"/>
<path d="M65.6063 46.9107H71.9425C76.3837 46.9107 79.4274 44.3265 79.4274 40.2107C79.4274 36.095 76.3837 33.5107 71.9425 33.5107H65.6063V46.9107ZM69.3965 43.8862V36.5353H71.7894C74.0674 36.5353 75.5988 37.8945 75.5988 40.2107C75.5988 42.527 74.0674 43.8862 71.7894 43.8862H69.3965Z" fill="#B53CEE"/>
<path d="M89.327 47.1782C93.615 47.1782 96.7735 44.2302 96.7735 40.2102C96.7735 36.1902 93.615 33.2422 89.327 33.2422C85.039 33.2422 81.8804 36.1902 81.8804 40.2102C81.8804 44.2302 85.039 47.1782 89.327 47.1782ZM89.327 44.0388C87.2978 44.0388 85.709 42.5265 85.709 40.2102C85.709 37.8939 87.2978 36.3816 89.327 36.3816C91.3561 36.3816 92.945 37.8939 92.945 40.2102C92.945 42.5265 91.3561 44.0388 89.327 44.0388Z" fill="#B53CEE"/>
<path d="M99.9076 46.9107H110.092V43.9053H103.698V33.5107H99.9076V46.9107Z" fill="#B53CEE"/>
<path d="M112.74 46.9107H116.53V33.5107H112.74V46.9107Z" fill="#B53CEE"/>
<path d="M129.41 33.5107V40.651L123.495 33.5107H120.375V46.9107H124.088V39.7705L130.003 46.9107H133.124V33.5107H129.41Z" fill="#B53CEE"/>
<path d="M146.978 46.9107H150.921L144.987 33.5107H141.254L135.338 46.9107H139.206L140.258 44.3073H145.925L146.978 46.9107ZM141.369 41.5125L143.092 37.2245L144.814 41.5125H141.369Z" fill="#B53CEE"/>
<path d="M65.6713 24.6117H72.3177C76.9762 24.6117 80.169 21.9008 80.169 17.5836C80.169 13.2665 76.9762 10.5557 72.3177 10.5557H65.6713V24.6117ZM69.647 21.439V13.7283H72.157C74.5466 13.7283 76.153 15.154 76.153 17.5836C76.153 20.0133 74.5466 21.439 72.157 21.439H69.647Z" fill="#B53CEE"/>
<path d="M82.26 24.6117H86.2358V10.5557H82.26V24.6117Z" fill="#B53CEE"/>
<path d="M98.4827 21.1386C97.7799 21.4599 97.0772 21.6005 96.3342 21.6005C93.9647 21.6005 92.3583 19.954 92.3583 17.5845C92.3583 15.1548 93.9647 13.5685 96.3744 13.5685C97.7197 13.5685 98.8241 14.0705 99.7879 15.1347L102.318 12.8456C100.932 11.179 98.804 10.2754 96.1735 10.2754C91.6155 10.2754 88.3423 13.3075 88.3423 17.5845C88.3423 21.8615 91.6155 24.8936 96.0932 24.8936C98.1414 24.8936 100.37 24.2711 101.997 23.1065V17.2832H98.4827V21.1386Z" fill="#B53CEE"/>
<path d="M104.516 24.6117H108.492V10.5557H104.516V24.6117Z" fill="#B53CEE"/>
<path d="M114.314 24.6117H118.29V13.7082H122.587V10.5557H109.997V13.7082H114.314V24.6117Z" fill="#B53CEE"/>
<path d="M133.884 24.6117H138.021L131.796 10.5557H127.88L121.675 24.6117H125.732L126.836 21.8808H132.78L133.884 24.6117ZM128.001 18.9491L129.808 14.4512L131.615 18.9491H128.001Z" fill="#B53CEE"/>
<path d="M139.146 24.6117H149.829V21.4591H143.122V10.5557H139.146V24.6117Z" fill="#B53CEE"/>
<path d="M-6.10352e-05 17.7754H16.4081C26.2252 17.7754 34.1836 25.7338 34.1836 35.5509C34.1836 45.368 26.2252 53.3264 16.4081 53.3264H-6.10352e-05V17.7754Z" fill="#671090"/>
<path opacity="0.5" d="M17.7755 0H34.1836C44.0008 0 51.9591 7.95837 51.9591 17.7755C51.9591 27.5927 44.0008 35.551 34.1836 35.551H17.7755V0Z" fill="#B53CEE"/>
</g>
<defs>
<clipPath id="clip0">
<rect width="151.776" height="67" fill="white"/>
</clipPath>
</defs>
</svg>

<svg width="152" height="67" viewBox="0 0 152 67" fill="none" xmlns="http://www.w3.org/2000/svg"><g clip-path="url(#clip0)"><path d="M7.14 65.633l-.009-5.705H6.04l-2.102 3.545L1.8 59.928H.71v5.705h1.239v-3.35l1.679 2.747h.587l1.679-2.812.008 3.415H7.14zm2.728-1.06v-1.32h2.65v-1.027h-2.65v-1.239h3v-1.06H8.555v5.706h4.418v-1.06H9.867zm6.854 1.157c.994 0 1.817-.358 2.355-1.018l-.847-.782c-.384.448-.864.676-1.435.676-1.068 0-1.826-.75-1.826-1.825 0-1.076.758-1.826 1.826-1.826.57 0 1.051.228 1.435.668l.847-.782c-.538-.652-1.36-1.01-2.347-1.01-1.777 0-3.097 1.23-3.097 2.95 0 1.72 1.32 2.95 3.089 2.95zm7.521-5.802h-4.947v1.076h1.817v4.629h1.305v-4.63h1.825v-1.075zm3.472 5.802c1.793 0 3.122-1.247 3.122-2.95 0-1.704-1.329-2.95-3.122-2.95-1.801 0-3.122 1.254-3.122 2.95 0 1.695 1.32 2.95 3.122 2.95zm0-1.125c-1.019 0-1.785-.742-1.785-1.825 0-1.084.766-1.826 1.785-1.826s1.785.742 1.785 1.826-.766 1.825-1.785 1.825zm10.472-4.677H34.16v5.705h1.312l-.009-4.63h2.715l.008-1.075zm5.182 4.629v-4.63h-4.385l-.065 1.786c-.057 1.597-.244 2.82-.986 2.844h-.228l-.009 2.258h1.223v-1.182h4.026v1.182h1.223v-2.258h-.799zm-3.285-2.722l.025-.831h1.956v3.553h-2.551c.391-.465.521-1.508.57-2.722zm6.286 2.738v-1.32h2.648v-1.027H46.37v-1.239h2.999v-1.06h-4.312v5.706h4.418v-1.06H46.37zm10.392-4.645v2.25H54.17v-2.25h-1.32v5.705h1.32v-2.34h2.592v2.34h1.32v-5.705h-1.32zm7.118 5.705h1.386l-2.55-5.705H61.41l-2.543 5.705h1.353l.505-1.223h2.65l.505 1.223zm-2.73-2.225l.905-2.184.905 2.184h-1.81zm7.825-3.48v2.567c-.367.163-.79.253-1.223.253-.79 0-1.222-.4-1.222-1.182v-1.638h-1.304v1.785c0 1.377.84 2.135 2.371 2.135.424 0 .88-.09 1.378-.269v2.054h1.304v-5.705h-1.304zm2.722 5.705h1.247l2.722-3.708v3.708h1.304v-5.705h-1.239l-2.722 3.716v-3.716h-1.312v5.705zm10.605-5.705v2.25h-2.591v-2.25h-1.32v5.705h1.32v-2.34h2.591v2.34h1.32v-5.705h-1.32zm7.119 5.705h1.386l-2.552-5.705h-1.303l-2.543 5.705h1.353l.505-1.223h2.649l.505 1.223zm-2.73-2.225l.904-2.184.905 2.184h-1.81zm6.184 1.165v-1.32h2.649v-1.027h-2.65v-1.239h3v-1.06h-4.311v5.706h4.417v-1.06h-3.105zm8.531-4.645h-4.947v1.076h1.818v4.629h1.304v-4.63h1.825v-1.075zm3.449 5.802c.994 0 1.818-.359 2.356-1.019l-.848-.782c-.383.448-.864.676-1.435.676-1.067 0-1.825-.75-1.825-1.825 0-1.076.758-1.826 1.825-1.826.571 0 1.052.228 1.435.668l.848-.782c-.538-.652-1.362-1.01-2.348-1.01-1.777 0-3.097 1.23-3.097 2.95 0 1.72 1.32 2.95 3.089 2.95zm5.198-5.802c-1.508 0-2.462.799-2.462 2.127 0 .897.432 1.549 1.199 1.858l-1.19 1.72h1.393l1.011-1.516h1.206v1.516h1.304v-5.705h-2.461zm.033 1.076h1.124v2.07h-1.157c-.742 0-1.125-.375-1.125-1.035 0-.685.408-1.035 1.158-1.035zm6.166 4.629h2.706c1.467 0 2.307-.66 2.307-1.801 0-1.092-.742-1.68-2.12-1.68h-1.581V60.98h3.293v-1.051h-4.605v5.705zm1.312-.978v-1.532h1.321c.692 0 1.043.244 1.043.75 0 .513-.367.782-1.043.782h-1.321zm4.705.978h1.247l2.722-3.708v3.708h1.305v-5.705h-1.239l-2.722 3.716v-3.716h-1.313v5.705zm9.937-2.975c.505-.22.823-.66.823-1.214 0-1.035-1.141-1.638-2.461-1.638a4.31 4.31 0 00-1.956.464l.399 1.027a3.2 3.2 0 011.532-.407c.644 0 1.15.244 1.15.709 0 .375-.31.611-.848.611h-1.296v.994h1.394c.595 0 .986.212.986.644 0 .53-.611.807-1.361.807-.554 0-1.19-.147-1.712-.465l-.407.946a4.604 4.604 0 002.274.595c1.369 0 2.543-.62 2.543-1.695 0-.644-.4-1.15-1.06-1.378zm6.017-2.73v2.25h-2.591v-2.25h-1.321v5.705h1.321v-2.34h2.591v2.34h1.321v-5.705h-1.321zm4.062 4.645v-1.32h2.649v-1.027h-2.649v-1.239h2.999v-1.06h-4.311v5.706h4.417v-1.06h-3.105zm6.855 1.157c.994 0 1.818-.359 2.356-1.019l-.848-.782c-.382.448-.864.676-1.434.676-1.068 0-1.827-.75-1.827-1.825 0-1.076.759-1.826 1.827-1.826.57 0 1.052.228 1.434.668l.848-.782c-.538-.652-1.362-1.01-2.347-1.01-1.777 0-3.098 1.23-3.098 2.95 0 1.72 1.321 2.95 3.089 2.95zM65.606 46.91h6.337c4.44 0 7.484-2.583 7.484-6.7 0-4.115-3.043-6.7-7.485-6.7h-6.336v13.4zm3.79-3.024v-7.35h2.393c2.278 0 3.81 1.358 3.81 3.675 0 2.316-1.532 3.675-3.81 3.675h-2.392zm19.931 3.292c4.288 0 7.447-2.948 7.447-6.968s-3.159-6.968-7.447-6.968-7.447 2.948-7.447 6.968 3.159 6.968 7.447 6.968zm0-3.14c-2.03 0-3.618-1.511-3.618-3.828 0-2.316 1.589-3.828 3.618-3.828 2.03 0 3.618 1.512 3.618 3.828s-1.589 3.829-3.618 3.829zm10.581 2.872h10.184v-3.005h-6.394V33.511h-3.79v13.4zm12.832 0h3.79v-13.4h-3.79v13.4zm16.67-13.4v7.141l-5.915-7.14h-3.12v13.4h3.713v-7.14l5.915 7.14h3.121v-13.4h-3.714zm17.568 13.4h3.943l-5.934-13.4h-3.733l-5.916 13.4h3.868l1.052-2.603h5.667l1.053 2.604zm-5.609-5.397l1.723-4.288 1.722 4.288h-3.445zM65.671 24.612h6.647c4.658 0 7.851-2.711 7.851-7.028s-3.193-7.028-7.851-7.028H65.67v14.056zm3.976-3.173v-7.71h2.51c2.39 0 3.996 1.425 3.996 3.855 0 2.43-1.606 3.855-3.996 3.855h-2.51zm12.613 3.173h3.976V10.556H82.26v14.056zm16.223-3.473a5.05 5.05 0 01-2.149.462c-2.37 0-3.976-1.647-3.976-4.017 0-2.43 1.607-4.015 4.016-4.015 1.346 0 2.45.501 3.414 1.566l2.53-2.29c-1.386-1.666-3.514-2.57-6.144-2.57-4.559 0-7.832 3.032-7.832 7.31 0 4.276 3.273 7.309 7.751 7.309 2.048 0 4.277-.623 5.904-1.787v-5.824h-3.514v3.856zm6.033 3.473h3.976V10.556h-3.976v14.056zm9.798 0h3.976V13.708h4.297v-3.152h-12.59v3.152h4.317v10.904zm19.57 0h4.137l-6.225-14.056h-3.916l-6.205 14.056h4.057l1.104-2.731h5.944l1.104 2.73zm-5.883-5.663l1.807-4.498 1.807 4.498h-3.614zm11.145 5.663h10.683v-3.153h-6.707V10.556h-3.976v14.056z" fill="#B53CEE"/><path d="M0 17.775h16.408c9.817 0 17.776 7.959 17.776 17.776s-7.959 17.775-17.776 17.775H0v-35.55z" fill="#671090"/><path opacity=".5" d="M17.776 0h16.408C44 0 51.959 7.958 51.959 17.776c0 9.817-7.958 17.775-17.775 17.775H17.776V0z" fill="#B53CEE"/></g><defs><clipPath id="clip0"><path fill="#fff" d="M0 0h151.776v67H0z"/></clipPath></defs></svg>
